icons/plexis/48/ostorybook.svg

<svg viewBox="0 0 48 48" xmlns="http://www.w3.org/2000/svg" xmlns:xlink="http://www.w3.org/1999/xlink">
  <linearGradient id="a" gradientTransform="matrix(0 -1 1 0 -.0000015 47.999998)" gradientUnits="userSpaceOnUse" x1="1" x2="47">
    <stop offset="0" stop-color="#e4e4e4"/>
    <stop offset="1" stop-color="#eee"/>
  </linearGradient>
  <path d="m47 24c0 22.703-.297 23-23 23-22.703 0-23-.297-23-23 0-22.703.297-23 23-23 22.703 0 23 .297 23 23z" fill="url(#a)"/>
  <path d="m25 10a12 15 0 0 0-12 15 12 15 0 0 0  12 15 12 15 0 0 0  12-15 12 15 0 0 0-12-15m0 2a10 13 0 0 1 10 13 10 13 0 0 1-10 13 10 13 0 0 1-10-13 10 13 0 0 1  10-13m0 1.9c-.554 0-1 .446-1 1v2c0 .554.446 1 1 1 .554 0 1-.446 1-1v-2c0-.554-.446-1-1-1zm-4.725 2.5c-.262 0-.524.1-.725.301-.401.401-.401 1.048 0 1.449l1.45 1.45c.401.401 1.048.401 1.449 0 .401-.401.401-1.048 0-1.449l-1.449-1.45c-.201-.201-.463-.301-.725-.301zm9.449 0c-.262 0-.524.1-.725.301l-1.449 1.449c-.401.401-.401 1.048 0 1.449.401.401 1.048.401 1.449 0l1.449-1.449c.401-.401.401-1.048 0-1.449-.201-.201-.463-.301-.725-.301zm-4.742 3.1a1 1 0 0 0-.814.445l-5 7.5a1 1 0 0 0 0 1.109l1.832 2.746v2.7a1 1 0 0 0 1 1h6a1 1 0 0 0 1-1v-2.697l1.832-2.748a1 1 0 0 0 0-1.109l-5-7.5a1 1 0 0 0-.85-.446m.018 2.803l3.799 5.697-1.629 2.445a1 1 0 0 0-.17.555v2h-4v-2a1 1 0 0 0-.168-.555l-1.632-2.445zm0 4.697c-.554 0-1 .446-1 1v1c0 .554.446 1 1 1 .554 0 1-.446 1-1v-1c0-.554-.446-1-1-1z" fill-opacity=".098"/>
  <path d="m24 9a12 15 0 0 0-12 15 12 15 0 0 0  12 15 12 15 0 0 0  12-15 12 15 0 0 0-12-15zm0 2a10 13 0 0 1 10 13 10 13 0 0 1-10 13 10 13 0 0 1-10-13 10 13 0 0 1  10-13z" fill="#e84444"/>
  <rect fill="#333" height="3" rx="1" width="2" x="23" y="26"/>
  <rect fill="#989730" height="4" rx="1" transform="translate(9.0000001 -40.599999)" width="2" x="14" y="53.5"/>
  <rect fill="#989730" height="4.098" rx="1.024" ry="1.025" transform="matrix(.70710678 -.70710678 .70710678 .70710678 9.0000001 -40.599999)" width="2.049" x="-34.08" y="46.564"/>
  <rect fill="#989730" height="4.098" rx="1.024" ry="1.025" transform="matrix(-.70710678 -.70710678 -.70710678 .70710678 9.0000001 -40.599999)" width="2.049" x="-55.3" y="25.351"/>
  <path d="m23.982 18.5a1 1 0 0 0-.814.445l-5 7.5a1 1 0 0 0 0 1.109l1.832 2.746v2.7a1 1 0 0 0 1 1h6a1 1 0 0 0 1-1v-2.697l1.832-2.748a1 1 0 0 0 0-1.109l-5-7.5a1 1 0 0 0-.85-.446m.018 2.803l3.799 5.697-1.629 2.445a1 1 0 0 0-.17.555v2h-4v-2a1 1 0 0 0-.168-.555l-1.632-2.445z" fill="#333" fill-rule="evenodd"/>
</svg>

<svg xmlns="http://www.w3.org/2000/svg" viewBox="0 0 48 48">
 <defs>
  <linearGradient id="linearGradient3764" x1="1" x2="47" gradientUnits="userSpaceOnUse" gradientTransform="matrix(0,-1,1,0,-1.5e-6,47.999998)">
   <stop style="stop-color:#e4e4e4;stop-opacity:1"/>
   <stop offset="1" style="stop-color:#eee;stop-opacity:1"/>
  </linearGradient>
 </defs>
 <g>
  
  
  
 </g>
 <g>
  <path d="m 47,24 C 47,46.703 46.703,47 24,47 1.297,47 1,46.703 1,24 1,1.297 1.297,1 24,1 46.703,1 47,1.297 47,24 z" style="fill:url(#linearGradient3764);fill-opacity:1"/>
 </g>
 <path d="M 25 10 A 12 15 0 0 0 13 25 12 15 0 0 0 25 40 12 15 0 0 0 37 25 12 15 0 0 0 25 10 m 0 2 A 10 13 0 0 1 35 25 10 13 0 0 1 25 38 10 13 0 0 1 15 25 10 13 0 0 1 25 12 m 0 1.9 c -0.554 0 -1 0.446 -1 1 l 0 2 c 0 0.554 0.446 1 1 1 0.554 0 1 -0.446 1 -1 l 0 -2 c 0 -0.554 -0.446 -1 -1 -1 z m -4.725 2.5 c -0.262 0 -0.524 0.1 -0.725 0.301 -0.401 0.401 -0.401 1.048 0 1.449 L 21 19.6 c 0.401 0.401 1.048 0.401 1.449 0 0.401 -0.401 0.401 -1.048 0 -1.449 L 21 16.701 c -0.201 -0.201 -0.463 -0.301 -0.725 -0.301 z m 9.449 0 c -0.262 0 -0.524 0.1 -0.725 0.301 l -1.449 1.449 c -0.401 0.401 -0.401 1.048 0 1.449 0.401 0.401 1.048 0.401 1.449 0 l 1.449 -1.449 c 0.401 -0.401 0.401 -1.048 0 -1.449 -0.201 -0.201 -0.463 -0.301 -0.725 -0.301 z M 24.982 19.5 a 1 1 0 0 0 -0.814 0.445 l -5 7.5 a 1 1 0 0 0 0 1.109 L 21 31.3 21 34 a 1 1 0 0 0 1 1 l 6 0 a 1 1 0 0 0 1 -1 l 0 -2.697 1.832 -2.748 a 1 1 0 0 0 0 -1.109 l -5 -7.5 A 1 1 0 0 0 24.982 19.5 m 0.018 2.803 L 28.799 28 27.17 30.445 A 1 1 0 0 0 27 31 l 0 2 -4 0 0 -2 A 1 1 0 0 0 22.832 30.445 L 21.2 28 25 22.303 m 0 4.697 c -0.554 0 -1 0.446 -1 1 l 0 1 c 0 0.554 0.446 1 1 1 0.554 0 1 -0.446 1 -1 l 0 -1 c 0 -0.554 -0.446 -1 -1 -1 z" style="fill:#000;fill-opacity:0.098;stroke:none"/>
 <g>
  
 </g>
 <g>
  <path d="M 24 9 A 12 15 0 0 0 12 24 A 12 15 0 0 0 24 39 A 12 15 0 0 0 36 24 A 12 15 0 0 0 24 9 z M 24 11 A 10 13 0 0 1 34 24 A 10 13 0 0 1 24 37 A 10 13 0 0 1 14 24 A 10 13 0 0 1 24 11 z" style="fill:#e84444;fill-opacity:1;stroke:none"/>
  <rect width="2" height="3" x="23" y="26" rx="1" style="fill:#333;fill-opacity:1;stroke:none"/>
  <rect width="2" height="4" x="14" y="53.5" rx="1" transform="translate(9.0000001,-40.599999)" style="fill:#989730;fill-opacity:1;stroke:none"/>
  <rect rx="1.024" y="46.564" x="-34.08" height="4.098" width="2.049" transform="matrix(0.70710678,-0.70710678,0.70710678,0.70710678,9.0000001,-40.599999)" ry="1.025" style="fill:#989730;fill-opacity:1;stroke:none"/>
  <rect transform="matrix(-0.70710678,-0.70710678,-0.70710678,0.70710678,9.0000001,-40.599999)" width="2.049" height="4.098" x="-55.3" y="25.351" rx="1.024" ry="1.025" style="fill:#989730;fill-opacity:1;stroke:none"/>
  <path d="m 23.982 18.5 a 1 1 0 0 0 -0.814 0.445 l -5 7.5 a 1 1 0 0 0 0 1.109 L 20 30.3 20 33 a 1 1 0 0 0 1 1 l 6 0 a 1 1 0 0 0 1 -1 l 0 -2.697 1.832 -2.748 a 1 1 0 0 0 0 -1.109 l -5 -7.5 A 1 1 0 0 0 23.982 18.5 M 24 21.303 27.799 27 26.17 29.445 A 1 1 0 0 0 26 30 l 0 2 -4 0 0 -2 A 1 1 0 0 0 21.832 29.445 L 20.2 27 24 21.303" mix-blend-mode="normal" isolation="auto" white-space="normal" solid-opacity="1" solid-color="#000000" style="visibility:visible;shape-rendering:auto;color-interpolation-filters:linearRGB;fill:#333;opacity:1;image-rendering:auto;fill-opacity:1;stroke:none;display:inline;color:#000;fill-rule:evenodd;color-rendering:auto;color-interpolation:sRGB"/>
 </g>
</svg>
